X: 624
T: Guanggunr kuqi
%%abc-version 2.0
%%abcx-abcm2ps-target-version 5.9.1 (29 Sep 2008)
%%abc-creator hum2abc beta
%%abcx-conversion-date 2013/10/02 07:52:30
%%abc-edited-by Helmut Schaffrath
%%humdrum-veritas 4028815142
%%humdrum-veritas-data 4177083076
%%continueall 1
%%barnumbers 0
L: 1/8
M: 2/4
K: Eb
c c/ c/ c g [I:setbarnb 1]| 
f ec2 | 
B c e g | 
f ec2 | 
c c c g | 
f e f f | 
c e B A | 
F2f2 | 
A B c e | 
B AF2 |]  



